X: 306
T: Kulsko Horo
B: incoming
M:2/4
L:1/8
Q: 1/4=240
K:G
V:1 
|:G2d2  |dcB2   |BGA2   |GAB2|G2d2|dcB2|BGA2|G4 :|
|:B2A2  |AGA2   |ABG2   |GFG2|B2A2|AGA2|ABG2|G4 :|
|:GABc  |dBc2   |cBAF   |G4  |BBBA|BcAG|AAAF|G4 :|
|:.G2.c2|.=B2.c2|.=B2.c2|B4  |G2B2|A2B2|A2B2|A4 :|
|:F2G2  |G2G2   |G4     |GFG2|F2G2|G2G2|G4  |G4 :|
% abcbook-tune_id 63cb082fc9cde16009c9e72b
% abcbook-tune_composer_id 
% abcbook-boost 0
% abcbook-difficulty 0
% abcbook-tags balkan dances
% abcbook-tablature 
% abcbook-transpose 
% abcbook-tuning 
% abcbook-lastupdated 1674250287866
% abcbook-soundfonts 
% abcbook-repeats 1


